icons/Rosette_1_filled.svg

<svg width="24" height="24" viewBox="0 0 24 24" fill="none" xmlns="http://www.w3.org/2000/svg">
<path fill-rule="evenodd" clip-rule="evenodd" d="M5.75,8.5c0,-3.45178 2.79822,-6.25 6.25,-6.25c3.4518,0 6.25,2.79822 6.25,6.25c0,2.0389 -0.9763,3.8498 -2.487,4.9907l1.4724,7.3622c0.0595,0.2975 -0.066,0.6015 -0.3181,0.7703c-0.252,0.1688 -0.5809,0.1691 -0.8333,0.0008l-4.084,-2.7226l-4.08397,2.7226c-0.2524,0.1683 -0.58131,0.168 -0.83336,-0.0008c-0.25205,-0.1688 -0.3776,-0.4728 -0.31811,-0.7703l1.47245,-7.3622c-1.51067,-1.1409 -2.48701,-2.9518 -2.48701,-4.9907zM9.60954,14.2766l-1.019,5.095l2.99346,-1.9956c0.2519,-0.168 0.5801,-0.168 0.832,0l2.9935,1.9956l-1.019,-5.095c-0.7364,0.305 -1.5438,0.4734 -2.3905,0.4734c-0.8467,0 -1.6541,-0.1684 -2.39046,-0.4734z" fill="#002B51"/>
</svg>

<svg width="24" height="24" viewBox="0 0 24 24" fill="none" xmlns="http://www.w3.org/2000/svg">
<path fill-rule="evenodd" clip-rule="evenodd" d="M5.75 8.5C5.75 5.04822 8.54822 2.25 12 2.25C15.4518 2.25 18.25 5.04822 18.25 8.5C18.25 10.5389 17.2737 12.3498 15.763 13.4907L17.2354 20.8529C17.2949 21.1504 17.1694 21.4544 16.9173 21.6232C16.6653 21.792 16.3364 21.7923 16.084 21.624L12 18.9014L7.91603 21.624C7.66363 21.7923 7.33472 21.792 7.08267 21.6232C6.83062 21.4544 6.70507 21.1504 6.76456 20.8529L8.23701 13.4907C6.72634 12.3498 5.75 10.5389 5.75 8.5ZM9.60954 14.2766L8.59054 19.3716L11.584 17.376C11.8359 17.208 12.1641 17.208 12.416 17.376L15.4095 19.3716L14.3905 14.2766C13.6541 14.5816 12.8467 14.75 12 14.75C11.1533 14.75 10.3459 14.5816 9.60954 14.2766Z" fill="#002B51"/>
</svg>
